hero/outline/bell-slash.svg

<svg width="24" height="24" viewBox="0 0 24 24" fill="none" xmlns="http://www.w3.org/2000/svg">
<path d="M9.14314 17.0818C10.0799 17.1929 11.0332 17.25 11.9998 17.25C12.3306 17.25 12.6599 17.2433 12.9874 17.2301M9.14314 17.0818C7.24843 16.857 5.4214 16.4116 3.68848 15.7719C5.02539 14.2879 5.87549 12.3567 5.98723 10.2299M9.14314 17.0818C9.05019 17.3712 9 17.6797 9 18C9 19.6569 10.3431 21 12 21C13.2864 21 14.3837 20.1903 14.8101 19.0527M16.7749 16.7749L21 21M16.7749 16.7749C17.9894 16.5298 19.1706 16.1929 20.3111 15.7719C18.8743 14.177 17.9998 12.0656 17.9998 9.75V9.04919L18 9C18 5.68629 15.3137 3 12 3C9.5667 3 7.47171 4.44849 6.53026 6.53026M16.7749 16.7749L6.53026 6.53026M3 3L6.53026 6.53026" stroke="#0F172A" stroke-width="1.5" stroke-linecap="round" stroke-linejoin="round"/>
</svg>

<svg viewBox="0 0 24 24" xmlns="http://www.w3.org/2000/svg"><path fill="none" stroke="#000" stroke-linecap="round" stroke-linejoin="round" stroke-width="1.5" d="M9.14 17.08v-.001c1.27.15 2.56.2 3.84.14m-3.85-.15v-.001c-1.87-.23-3.7-.67-5.46-1.31H3.66c1.38-1.53 2.19-3.49 2.3-5.542m3.15 6.85H9.11c-.53 1.57.31 3.27 1.88 3.79 1.54.51 3.22-.3 3.77-1.83m1.96-2.28l4.22 4.22m-4.23-4.23l-.001-.001c1.2-.25 2.38-.58 3.53-1.01v0c-1.5-1.66-2.32-3.8-2.311-6.03v-.75 0c0-3.32-2.69-6.01-6-6.01 -2.37-.01-4.51 1.38-5.48 3.53M16.69 16.7L6.44 6.46M2.91 2.93l3.53 3.53"/></svg>
